X:1
T:Wir ruffen an den trewren Mann
T:André Vierendeels
T:Melody by Georg Vogler (1625) (Soprano voice) 
T:Source :  Catechismus---Würzburg---J.Volmari---1652. Editor : André Vierendeels (01/10/17).
T:Notes : Original clef : C1, other voices supplied editorially Original note vaues have been Quartered Text Middle German 
T:Wir ruffen an den trewren Mann
T:©
T:©
C:André Vierendeels
Z:©
%%score [ 1 2 3 ]
L:1/8
Q:1/4=120
M:3/4
K:F
V:1 treble nm="Soprano" snm="S"
V:2 treble-8 nm="Tenor" snm="T"
V:3 bass nm="Bass" snm="B"
V:1
 z2 z2 G2 |"^1)" G4 A2 | B4 B2 | c4 c2 | d4 B2 | c4 c2 | d4 d2 | d4 e2 | e4 d2 | d2 c4 | B4 c2 | %11
w: Wir|ruf- fen|an den|thre- wen|Mann, Sanct|Ki- li-|an, Sanct|Co- lo-|nat, und|Sanct Tot-|nan, dich|
w: Der|Päpst- lich|Stul hat|sich ge-|sandt, Sanct|Ki- li-|an, mit|dei- nen|Ge- sel'n|ins Fran-|cken, dich|
 d2 c4 | B2 A2 G2 | d2 c4 | B2 A2 G2 | B2 c2 A2 | G6 |] %17
w: lo- ben,|dir dan- cken|dein' Kin-|der in Franck'n,|Sanct Ki- li-|an.|
w: lo- ben,|dir dan- cken,|dein' Kin-|der in Franck'n,|Sanckt Ki- li-|an.|
V:2
 z2 z2 G2 |"^2)""^1)" c4 F2 | G4 d2 | G4 A2 | A4 F2 | A4 G2 | A4 B2 | A4 G2 | =B2 c2 A2 | %9
w: Wir|ruf- fen|an den|thre- wen|Mann, Sanct|Ki- li-|an, Sanct|Co- lo-|nat, und Sanct|
w: Es|hat er-|löst uns|Fran- cken|frey, Sanct|Ki- li-|an, vom|Ge- wel|der Ab- Göt-|
 B2 G2 F2 | F4 A2 | B2 G2 E2 | D2 C2 D2 | F2 E2 A2 | F2 F2 E2 | F2 c2 f2 | d6 |] %17
w: Tot- * *|nan, dich|lo- * ben,|dir dan- cken|dein' Kin- der|in Fran- cken,|Sanct Ki- li-|an.|
w: te- * *|ren, dich|lo- * ben,|dir dan- cken,|dein' Kin- der|in Fran- cken,|Sanct Ki- li-|an.|
V:3
 z2 z2 G,2 |"^3)""^1)""^4)" E,4 D,2 | G,,4 G,,2 | C,2 E,2 F,2 | D,4 B,,2 | F,4 E,2 | D,4 G,2 | %7
w: Wir|ruf- fen|an den|thre- * wen|Mann, Sanct|Ki- li-|an, Sanct|
w: Das|Gött- lich|Wort hat|ausz- * ge-|stect, Sanct|Ki li|an, von|
 F,2 D,2 C,2 | G,2 E,2 F,2 | G,2 E,2 D,2 | D,4 F,2 | G,2 C,4 | G,2 A,2 B,2 | B,2 G,2 F,2 | %14
w: Co- lo- *|nat, und Sanct|Tot- * *|nan, dich|lo- ben,|dir dan- cken|dein' Kin- der|
w: ihm den _|Fran- cken Heyl|ent- * *|steht, dich|lo- ben,|dir dan- cken|dein' Kin- der|
 B,,2 D,2 C,2 | B,,2 C,2 D,2 | G,,6 |] %17
w: in Fran- cken,|Sanct Ki- li-|an.|
w: in Fran- cken,|Sanct Ki- li-|an.|

